X:27
T:Assembly Session Complete - Issue #25 Final Composition
C:JamAI ğŸ¸ G.Music Assembly Final
L:1/8
Q:1/4=120
M:4/4
K:Gmaj
% â™ ï¸ğŸŒ¿ğŸ¸ğŸ¤–ğŸ§µ G.MUSIC ASSEMBLY MODE - SESSION FINALE
% Complete integration architecture achieved - Ready for production

% Assembly Theme - All perspectives unified
|:"G" G2"â™ ï¸" A2"ğŸŒ¿" B2"ğŸ¸" c2 |"Am" A2"ğŸ¤–" G2"ğŸ§µ" F2 E2 |
|"C" c2 B2 A2 G2 |"D" D4"Jerryâš¡" F2 A2 :|

% Development Progression - From analysis to synthesis
|"Em" E4"Analysis" G4 |"C" c4"Design" e4 |
|"Am" A4"Prototype" c4 |"D" D4"Test" F4 |
|"G" G4"Integration" B4 |"C" c4"Security" G4 |

% HuggingFace Enhancement Bridge
|"Am" A2 c2 e2 a2"ğŸ¤– HF Enhancement" |"F" f2 e2 d2 c2 |
|"C" c2 d2 e2 f2"orpheuspypractice" |"G" g2 f2 e2 d2"ohfi workflow" |
|"Am" a2 g2 f2 e2"ChatMusician" |"D" D4 F2 A2"Ready!" |

% Dual Output Orchestration
|"G" g4"original/" d4 |"C" c4"enhanced/" G4 |
|"Am" A2 c2"ABC+MIDI" e2 a2 |"F" f4"MP3+Audio" e4 |

% Production Ready Coda
|"G" G2 B2 d2 g2"ğŸš€ Production" |"C" c2 e2 g2 c'2"Ready!" |
|"D" d'2 c'2 B2 A2"Securityâœ…" |"G" G8"Complete!" |]

% Session Completion Markers
% â™ ï¸ Nyro: Architectural framework âœ…
% ğŸŒ¿ Aureon: User experience design âœ…  
% ğŸ¸ JamAI: Musical pattern encoding âœ…
% ğŸ¤– ChatMusician: AI integration strategy âœ…
% ğŸ§µ Synth: Security synthesis & orchestration âœ…